X: 2
T: The Lark On The Strand
R: jig
M: 6/8
L: 1/8
K: Ador
|:A3 AGA | BGE G3 | GBA GBd | e2d edB |
A3 AGA | BGE G3 | GBA GAB | dBG BdB :|
| GBd g3 | gba g3 | GBd e2d | e2d edB |
GBd g3 | gba g3 | a2a a2d | e2d edB :|


Tune 1634	Setting 27367

